X:228
M:C|
L:1/8
K:C Minor
ECFD GEAF|GEFD ECC||G|cGEe cgec|Bbfg dfBd|ecge dBGc|BEDG ECCG|

